dist/img/tel.svg

<svg width="18" height="18" viewBox="0 0 18 18" fill="none" xmlns="http://www.w3.org/2000/svg">
<path d="M3.79251 1.17383L2.02152 2.94482C1.05033 3.91602 0.839389 5.42773 1.53372 6.61426C2.30716 7.94141 2.93997 8.92139 5.58988 11.5669C8.23538 14.2168 8.95609 14.5771 10.2613 15.3418C11.4522 16.0361 12.9595 15.8252 13.9263 14.854L15.7017 13.083L12.274 9.65967L10.8809 11.0527C10.7139 10.978 10.4634 10.8462 10.1734 10.6616C9.57572 10.2793 8.81107 9.69483 8.1387 9.01807C7.46195 8.3457 6.80277 7.50635 6.34574 6.82959C6.12161 6.49561 5.94144 6.19238 5.84476 5.99463C5.84036 5.98584 5.84036 5.98584 5.83597 5.97705L7.21585 4.59717L3.79251 1.17383ZM3.79251 2.76465L5.62503 4.59717L4.82083 5.40576C4.65384 5.57275 4.63626 5.75732 4.64066 5.86279C4.64066 5.96387 4.65824 6.03418 4.67581 6.1001C4.71536 6.23633 4.7681 6.35498 4.83402 6.49561C4.97025 6.76807 5.168 7.09326 5.4141 7.4624C5.90628 8.19189 6.60062 9.0752 7.3389 9.81787C8.08158 10.5562 8.89896 11.1802 9.57132 11.6064C9.90531 11.8218 10.1997 11.9844 10.4502 12.0942C10.5777 12.1514 10.6919 12.1953 10.8282 12.2217C10.8941 12.2349 10.9688 12.2437 11.0699 12.2349C11.1709 12.2305 11.3291 12.1953 11.4698 12.0547L12.274 11.2505L14.1109 13.083L13.1309 14.063C12.5201 14.6738 11.5752 14.8057 10.8282 14.3706C9.50101 13.5928 8.99564 13.3862 6.38089 10.7759C3.77054 8.16113 3.26956 7.35693 2.50492 6.04736C2.06986 5.30029 2.20169 4.35547 2.81253 3.74463L3.79251 2.76465Z" fill="#E12025"/>
</svg>

<svg xmlns="http://www.w3.org/2000/svg" fill="none" viewBox="0 0 18 18"><path fill="#E12025" d="M3.793 1.174l-1.771 1.77a3.035 3.035 0 00-.488 3.67c.773 1.327 1.406 2.307 4.056 4.953 2.645 2.65 3.366 3.01 4.671 3.775a3.027 3.027 0 003.665-.488l1.776-1.771-3.428-3.423-1.393 1.393a5.815 5.815 0 01-.708-.391A12.494 12.494 0 018.14 9.018 15.457 15.457 0 016.346 6.83a7.912 7.912 0 01-.501-.835l-.009-.018 1.38-1.38-3.423-3.423zm0 1.59l1.832 1.833-.804.809a.595.595 0 00-.18.457c0 .1.017.171.035.237.04.136.092.255.158.396.136.272.334.597.58.966.492.73 1.187 1.613 1.925 2.356.743.738 1.56 1.362 2.232 1.788.334.216.629.378.88.488.127.057.24.101.377.128.066.013.14.022.242.013a.601.601 0 00.4-.18l.804-.804 1.837 1.832-.98.98c-.61.61-1.556.743-2.303.308-1.327-.778-1.832-.985-4.447-3.595C3.77 8.16 3.27 7.356 2.505 6.047a1.903 1.903 0 01.308-2.302l.98-.98z"/></svg>
